<?xml version="1.0" encoding="UTF-8"?>
<map version="1.10" tiledversion="1.11.0" orientation="orthogonal" renderorder="right-down" width="30" height="20" tilewidth="550" tileheight="550" infinite="0" nextlayerid="4" nextobjectid="41">
 <tileset firstgid="1" source="iceobjects1.tsx"/>
 <tileset firstgid="26" source="../../../tiled/snow_on_ice_brush_proper1.tsx"/>
 <layer id="1" name="Tile Layer 1" width="30" height="20">
  <data encoding="csv">
30,33,38,29,40,31,30,30,31,31,31,32,33,32,32,33,31,31,31,33,31,33,33,33,30,33,33,30,33,31,
31,31,47,52,51,48,31,33,32,31,31,30,31,30,30,31,32,32,33,31,32,31,30,30,30,31,30,32,30,30,
31,30,30,38,27,40,31,33,32,31,31,32,33,33,30,31,33,33,33,32,30,30,32,30,30,32,31,32,32,33,
31,31,31,38,26,40,31,33,32,30,32,33,32,30,32,30,33,32,32,32,31,30,32,30,30,32,30,30,32,33,
33,33,31,38,27,51,48,32,33,32,31,32,32,31,30,31,33,33,33,32,31,30,31,31,31,33,31,32,31,30,
33,32,32,47,36,52,40,32,30,30,30,33,31,31,31,30,33,30,32,30,31,30,31,32,33,30,32,31,30,31,
33,31,32,32,30,38,51,48,30,32,33,30,33,31,30,31,31,31,31,30,30,33,33,31,32,33,31,33,33,32,
32,33,33,31,33,47,52,51,34,34,34,34,34,48,30,33,33,30,31,30,30,31,31,33,30,31,31,32,33,33,
33,32,32,31,31,30,47,36,36,36,36,36,52,51,48,33,30,32,33,31,32,30,30,32,33,32,31,32,30,30,
31,31,32,32,33,31,33,31,32,32,32,30,47,52,40,32,33,33,33,32,32,32,33,30,31,33,31,32,33,31,
30,31,32,31,32,30,33,33,30,33,31,33,31,38,51,48,32,32,30,31,30,32,32,31,31,31,33,30,30,33,
33,33,30,30,31,31,30,30,32,30,32,32,30,47,52,51,48,30,32,30,33,31,33,32,33,33,33,30,31,31,
32,33,33,30,31,30,32,31,32,31,30,31,33,32,47,52,51,48,33,31,30,30,31,33,32,33,32,33,30,30,
32,32,32,33,30,31,33,31,31,31,33,33,33,32,49,50,29,40,33,32,30,32,32,33,33,31,30,30,31,30,
30,31,30,32,32,30,30,31,31,31,31,31,31,33,38,28,29,40,33,32,32,33,30,31,32,32,32,30,31,30,
30,31,32,31,31,31,32,33,32,31,31,31,30,49,50,28,26,40,30,33,33,32,32,32,32,30,30,31,33,30,
33,33,32,32,30,33,30,31,30,33,31,30,33,38,29,26,29,40,30,30,33,33,30,32,33,31,31,32,33,32,
30,32,31,33,30,31,33,33,33,33,31,32,49,50,26,26,53,46,33,31,31,33,30,33,33,30,31,32,31,32,
32,33,32,30,32,30,33,32,33,31,31,32,38,26,53,36,46,33,30,33,32,31,33,33,33,32,33,32,31,30,
31,33,33,30,31,31,33,33,30,31,31,49,50,26,40,31,32,32,33,32,33,32,33,33,32,33,33,30,31,31
</data>
 </layer>
 <objectgroup id="2" name="Object Layer 1">
  <object id="1" gid="1" x="4961.71" y="2910.81" width="198" height="166"/>
  <object id="2" gid="20" x="8458.67" y="3590.36" width="550" height="550"/>
  <object id="3" gid="24" x="11298.1" y="8182.43" width="550" height="550"/>
  <object id="4" gid="22" x="11455.2" y="6297.22" width="550" height="550"/>
  <object id="5" gid="5" x="8799.94" y="2266.41" width="550" height="550"/>
  <object id="7" gid="9" x="13986.3" y="3713.77" width="550" height="550"/>
  <object id="8" gid="4" x="6622.98" y="1500.16" width="550" height="550"/>
  <object id="9" gid="19" x="6226.56" y="1463.44" width="614" height="742"/>
  <object id="10" gid="21" x="5782.13" y="1444.53" width="550" height="550"/>
  <object id="11" gid="23" x="3954.96" y="3345.47" width="550" height="550"/>
  <object id="12" gid="22" x="6893.31" y="3152.13" width="736.988" height="732.266"/>
  <object id="13" gid="6" x="5297.3" y="3623.65" width="550" height="550"/>
  <object id="14" gid="11" x="5971.94" y="3625.84" width="550" height="550"/>
  <object id="15" gid="16" x="4752.24" y="1444.53" width="550" height="550"/>
  <object id="16" gid="2" x="2244.35" y="4201.47" width="550" height="550"/>
  <object id="17" gid="3" x="4616" y="3636.75" width="550" height="550"/>
  <object id="18" gid="18" x="7847.79" y="3798.24" width="190" height="118"/>
  <object id="19" gid="25" x="2740.3" y="4885.1" width="550" height="550"/>
  <object id="21" gid="20" x="8753" y="3693" width="550" height="550"/>
  <object id="22" gid="20" x="9057" y="3793" width="550" height="550"/>
  <object id="23" gid="4" x="6809" y="1585" width="550" height="550"/>
  <object id="24" gid="4" x="7053" y="1729" width="550" height="550"/>
  <object id="25" gid="4" x="7169" y="1333" width="550" height="550"/>
  <object id="26" gid="4" x="7113" y="1517" width="550" height="550"/>
  <object id="27" gid="4" x="7525" y="1105" width="550" height="550"/>
  <object id="28" gid="16" x="4333" y="1109" width="550" height="550"/>
  <object id="29" gid="21" x="5329" y="1301" width="550" height="550"/>
  <object id="30" gid="21" x="5717" y="853" width="550" height="550"/>
 </objectgroup>
 <objectgroup id="3" name="Slipery Layer">
  <properties>
   <property name="slippery_factor" type="float" value="3"/>
  </properties>
  <object id="34" x="1290.91" y="12.1212" width="1266.67" height="603.03"/>
  <object id="35" x="1293.94" y="318.182" width="890.909" height="606.061">
   <ellipse/>
  </object>
  <object id="37" x="2200" y="724.242" width="890.909" height="606.061">
   <ellipse/>
  </object>
  <object id="38" x="1839.39" y="409.091" width="721.212" height="1093.94"/>
  <object id="39" x="2572.73" y="645.455">
   <polygon points="0,0 93.9394,84.8485 -9.09091,84.8485"/>
  </object>
  <object id="40" x="1748.48" y="936.364" rotation="90">
   <polygon points="0,0 93.9394,-84.8485 -9.09091,-84.8485"/>
  </object>
 </objectgroup>
</map>
